X: 6
T: The Red Haired Boy
R: reel
M: 4/4
L: 1/8
K: Dmix
A,DDC DEFG|ABAF G2FG|ADDC DEED|ECA,B, C2B,G,|A,DDC DEFG|ABAF G2FG|Addc dcAG|1 FDEF D3C:|2 FEDF D3z|||:c3B c2AB|cBAF G2FG|ADDC DEED|ECA,B, C2B,G|A,DDC DEFG|ABAF G2FG|Addc dcAG|1 FDEF D3z:|2 FEDF D3C||


Tune 566	Setting 13545

